2 Export/Icons/Rounded/Favorite.svg

<svg xmlns="http://www.w3.org/2000/svg" xmlns:xlink="http://www.w3.org/1999/xlink" width="24" height="24" viewBox="0 0 24 24">
  <defs>
    <path id="favorite-a" d="M13.35 20.13c-.76.69-1.93.69-2.69-.01l-.11-.1C5.3 15.27 1.87 12.16 2 8.28c.06-1.7.93-3.33 2.34-4.29 2.64-1.8 5.9-.96 7.66 1.1 1.76-2.06 5.02-2.91 7.66-1.1 1.41.96 2.28 2.59 2.34 4.29.14 3.88-3.3 6.99-8.55 11.76l-.1.09z"/>
  </defs>
  <g fill="none" fill-rule="evenodd">
    <polygon points="0 0 24 0 24 24 0 24"/>
    <mask id="favorite-b" fill="#fff">
      <use xlink:href="#favorite-a"/>
    </mask>
    <use fill="#000" xlink:href="#favorite-a"/>
    <g fill="#000" mask="url(#favorite-b)">
      <rect width="24" height="24"/>
    </g>
  </g>
</svg>

<svg xmlns="http://www.w3.org/2000/svg" xmlns:xlink="http://www.w3.org/1999/xlink" width="24" height="24" viewBox="0 0 24 24">
  <defs>
    <path id="favorite-a" d="M13.35,20.13 C12.59,20.82 11.42,20.82 10.66,20.12 L10.55,20.02 C5.3,15.27 1.87,12.16 2,8.28 C2.06,6.58 2.93,4.95 4.34,3.99 C6.98,2.19 10.24,3.03 12,5.09 C13.76,3.03 17.02,2.18 19.66,3.99 C21.07,4.95 21.94,6.58 22,8.28 C22.14,12.16 18.7,15.27 13.45,20.04 L13.35,20.13 Z"/>
  </defs>
  <g fill="none" fill-rule="evenodd">
    <polygon points="0 0 24 0 24 24 0 24"/>
    <mask id="favorite-b" fill="#fff">
      <use xlink:href="#favorite-a"/>
    </mask>
    <use fill="#000" xlink:href="#favorite-a"/>
    <g fill="#000" mask="url(#favorite-b)">
      <rect width="24" height="24"/>
    </g>
  </g>
</svg>
